X: 10692
T: MRS. HAMILTON OF PINTCAITLAND'S STRATHSPEY
C: Nath. Gow.
Q: "Slow."
%R: strathspey
B: W. Hamilton "Universal Tune-Book" Vol. 1 Glasgow 1844 p.69 #2
S: http://imslp.org/wiki/Hamilton's_Universal_Tune-Book_(Various)
Z: 2016 John Chambers <jc:trillian.mit.edu>
M: C
L: 1/8
K: C
%%slurgraces yes
%%graceslurs yes
% - - - - - - - - - - - - - - - - - - - - - - - - -
G/F/ |\
TE>FGG AcAF | Ec {A}GF/E/ EDD>F |\
TE>FGG A>Bcf | (eg)fd {B}c2 cG/F/ |\
TE>FGG AcGe | FdEc {E}D2 DG/F/ |\
TE>FGG AcGE | FAGE C2C |]
(g/f/) |\
(egf)d {B}c2 Tcd/e/ | (fa)ge d2 Tdg/f/ |\
(ef)dB (ce) GE | FAGE C2 Cg/f/ |\
(eg)fd {B}c2 Tcd/e/ | (fa)ge d2 Tde/f/ |\
g>ef>d ec GE | (FA)GE C2C |]
% - - - - - - - - - - - - - - - - - - - - - - - - -

%%sep 1 1 500
%%sep 1 1 500

